static/images/social/instagram.svg

<?xml version="1.0" encoding="UTF-8"?>
<svg width="24px" height="24px" viewBox="0 0 24 24" version="1.1" xmlns="http://www.w3.org/2000/svg" xmlns:xlink="http://www.w3.org/1999/xlink">
    <title>编组 8</title>
    <g id="页面-1" stroke="none" stroke-width="1" fill="none" fill-rule="evenodd">
        <g id="编组-8" fill-rule="nonzero">
            <g id="编组-4">
                <circle id="椭圆形" fill="#010201" cx="12" cy="12" r="12"></circle>
                <path d="M12,5.80622222 C14.0177778,5.80622222 14.256,5.80622222 15.0524444,5.85066667 C15.532055,5.8555741 16.0072043,5.94338651 16.4568889,6.11022222 C17.1174689,6.36342455 17.6404195,6.88379267 17.8968889,7.54311111 C18.0637246,7.99279567 18.151537,8.46794501 18.1564444,8.94755556 C18.1937778,9.744 18.2008889,9.98222222 18.2008889,12 C18.2008889,14.0177778 18.2008889,14.256 18.1564444,15.0524444 C18.151537,15.532055 18.0637246,16.0072043 17.8968889,16.4568889 C17.6420207,17.1147727 17.1218839,17.6349096 16.464,17.8897778 C16.0143154,18.0566135 15.5391661,18.1444259 15.0595556,18.1493333 C14.2631111,18.1866667 14.0248889,18.1937778 12.0071111,18.1937778 C9.98933333,18.1937778 9.75111111,18.1937778 8.95466667,18.1493333 C8.47505612,18.1444259 7.99990678,18.0566135 7.55022222,17.8897778 C6.89233836,17.6349096 6.37220152,17.1147727 6.11733333,16.4568889 C5.95049762,16.0072043 5.86268521,15.532055 5.85777778,15.0524444 C5.808,14.256 5.808,14.0177778 5.808,12 C5.808,9.98222222 5.808,9.744 5.85244444,8.94755556 C5.85735188,8.46794501 5.94516429,7.99279567 6.112,7.54311111 C6.36686819,6.88522725 6.88700503,6.36509041 7.54488889,6.11022222 C7.99457345,5.94338651 8.46972279,5.8555741 8.94933333,5.85066667 C9.74577778,5.81333333 9.984,5.80622222 12.0017778,5.80622222 M12.0017778,4.44444444 C9.95022222,4.44444444 9.69066667,4.45333333 8.88711111,4.49066667 C8.25977377,4.5038765 7.63929944,4.62412347 7.05244444,4.84622222 C6.03712298,5.23813359 5.23457803,6.04067854 4.84266667,7.056 C4.62056791,7.642855 4.50032095,8.26332932 4.48711111,8.89066667 C4.44977778,9.696 4.44088889,9.95733333 4.44088889,12.0053333 C4.44088889,14.0533333 4.44977778,14.3164444 4.48711111,15.12 C4.50032095,15.7473373 4.62056791,16.3678117 4.84266667,16.9546667 C5.23582736,17.9679656 6.03819846,18.7684001 7.05244444,19.1591111 C7.63929944,19.3812099 8.25977377,19.5014568 8.88711111,19.5146667 C9.69244444,19.552 9.95377778,19.5608889 12.0017778,19.5608889 C14.0497778,19.5608889 14.3128889,19.5608889 15.1164444,19.5146667 C15.7437818,19.5014568 16.3642561,19.3812099 16.9511111,19.1591111 C17.9657584,18.766783 18.7675997,17.964296 19.1591111,16.9493333 C19.3812099,16.3624783 19.5014568,15.742004 19.5146667,15.1146667 C19.552,14.3093333 19.5608889,14.048 19.5608889,12 C19.5608889,9.952 19.552,9.68888889 19.5146667,8.88533333 C19.5014568,8.25799599 19.3812099,7.63752166 19.1591111,7.05066667 C18.7671997,6.03534521 17.9646548,5.23280026 16.9493333,4.84088889 C16.3624783,4.61879013 15.742004,4.49854317 15.1146667,4.48533333 C14.3093333,4.448 14.048,4.43911111 12,4.43911111 L12.0017778,4.44444444 Z" id="形状" fill="#FFFFFF"></path>
                <path d="M12,8.12088889 C9.85762609,8.12088889 8.12088889,9.85762609 8.12088889,12 C8.12088889,14.1423739 9.85762609,15.8791111 12,15.8791111 C14.1423739,15.8791111 15.8791111,14.1423739 15.8791111,12 C15.8791111,9.85762609 14.1423739,8.12088889 12,8.12088889 L12,8.12088889 Z M12,14.5208889 C10.6089648,14.5208889 9.48121658,13.3934051 9.48088951,12.00237 C9.48056259,10.6113348 10.6077807,9.48332128 11.9988157,9.48266666 C13.3898506,9.48201261 14.5181294,10.6089652 14.5191111,12 C14.5181306,13.3908603 13.3908603,14.5181306 12,14.5191111 L12,14.5208889 Z" id="形状" fill="#FFFFFF"></path>
                <circle id="椭圆形" fill="#FFFFFF" cx="16.0337778" cy="7.96622222" r="1"></circle>
            </g>
        </g>
    </g>
</svg>

<svg xmlns="http://www.w3.org/2000/svg" width="24" height="24" viewBox="0 0 24 24"><title>instagram</title><g fill="none" fill-rule="nonzero"><circle cx="12" cy="12" r="12" fill="#444"/><path fill="#DEDEDE" d="M12 5.806c2.018 0 2.256 0 3.052.045.48.005.955.092 1.405.26.66.252 1.183.773 1.44 1.432.167.45.255.925.26 1.405.037.796.044 1.034.044 3.052s0 2.256-.045 3.052a4.16 4.16 0 0 1-.26 1.405 2.508 2.508 0 0 1-1.432 1.433 4.16 4.16 0 0 1-1.404.26c-.797.037-1.035.044-3.053.044s-2.256 0-3.052-.045a4.16 4.16 0 0 1-1.405-.26 2.508 2.508 0 0 1-1.433-1.432 4.16 4.16 0 0 1-.26-1.405c-.049-.796-.049-1.034-.049-3.052s0-2.256.044-3.052a4.16 4.16 0 0 1 .26-1.405A2.508 2.508 0 0 1 7.545 6.11a4.16 4.16 0 0 1 1.404-.26c.797-.037 1.035-.044 3.053-.044m0-1.362c-2.052 0-2.311.01-3.115.047a5.511 5.511 0 0 0-1.835.355 3.858 3.858 0 0 0-2.21 2.21 5.511 5.511 0 0 0-.355 1.835c-.037.805-.046 1.066-.046 3.114s.009 2.311.046 3.115c.013.627.134 1.248.356 1.835a3.858 3.858 0 0 0 2.21 2.204 5.511 5.511 0 0 0 1.834.356c.805.037 1.067.046 3.115.046s2.31 0 3.114-.046a5.511 5.511 0 0 0 1.835-.356 3.858 3.858 0 0 0 2.208-2.21 5.511 5.511 0 0 0 .356-1.834c.037-.806.046-1.067.046-3.115s-.009-2.311-.046-3.115a5.511 5.511 0 0 0-.356-1.834 3.858 3.858 0 0 0-2.21-2.21 5.511 5.511 0 0 0-1.834-.356c-.806-.037-1.067-.046-3.115-.046l.002.005Z"/><path fill="#DEDEDE" d="M12 8.12a3.88 3.88 0 1 0 0 7.76 3.88 3.88 0 0 0 0-7.76Zm0 6.4a2.52 2.52 0 1 1 0-5.034 2.52 2.52 0 0 1 0 5.033v.002Z"/><circle cx="16.034" cy="7.966" r="1" fill="#DEDEDE"/></g></svg>
